!!!COM: Palestrina, Giovanni Perluigi da
!!!OPR: Missa Tu es Petrus (1887)
!!!OMD: Credo
!!!OTL: First Section
**kern	**kern	**kern	**kern	**kern	**kern
*Ibass	*Ibarit	*Itenor	*Icalto	*Icant	*Icant
!Bassus	!Baritone	!Tenor	!Altus	!Cantus 2	!Cantus 1
*clefF4	*clefF4	*clefGv2	*clefG2	*clefG2	*clefG2
*k[]	*k[]	*k[]	*k[]	*k[]	*k[]
*G:mix	*G:mix	*G:mix	*G:mix	*G:mix	*G:mix
*M4/2	*M4/2	*M4/2	*M4/2	*M4/2	*M4/2
=1	=1	=1	=1	=1	=1
1G	1B	1d	0r	0r	0r
2G	2B	[1d	.	.	.
4F#	4A	.	.	.	.
4E	4G	.	.	.	.
=2	=2	=2	=2	=2	=2
2F#	2A	2d]	0r	0r	0r
2G	2B	2d	.	.	.
2C	2c	2e	.	.	.
2C	2c	2e	.	.	.
=3	=3	=3	=3	=3	=3
0G	1B	1d	1r	1r	1r
.	4G	1d	1g	1dd	1b
.	4A	.	.	.	.
.	4B	.	.	.	.
.	4c	.	.	.	.
=4	=4	=4	=4	=4	=4
1D	1d	2r	2g	1.dd	2b
.	.	2d	4f#	.	4a
.	.	.	4e	.	4g
1r	1r	2d	2f#	.	2a
.	.	2G	2g	2dd	2b
=5	=5	=5	=5	=5	=5
0r	0r	1g	4c	1ee	1cc
.	.	.	4d	.	.
.	.	.	4e	.	.
.	.	.	4f	.	.
.	.	1G	1g	4dd	4b
.	.	.	.	4cc	4a
.	.	.	.	4dd	4b
.	.	.	.	4ee	4cc
=6	=6	=6	=6	=6	=6
0r	0r	0r	4d	2ff	2dd
.	.	.	4e	.	.
.	.	.	4f	2ff	4cc
.	.	.	4g	.	4b
.	.	.	2a	4ee	2cc
.	.	.	.	4dd	.
.	.	.	2A	4cc	[2a
.	.	.	.	4b	.
=7	=7	=7	=7	=7	=7
0r	0r	0r	1e	4cc	4a]
.	.	.	.	4b	4g
.	.	.	.	4b	1g
.	.	.	.	8a	.
.	.	.	.	8g	.
.	.	.	1d	1a	.
.	.	.	.	.	2f#
=8	=8	=8	=8	=8	=8
2r	2r	2r	2r	2b	2g
1G	1B	1d	1g	1dd	1b
2G	2B	2d	2g	2dd	2b
=9	=9	=9	=9	=9	=9
2G	2B	2d	2g	2b	1dd
2G	2B	2d	2g	2b	.
1C	1c	1g	1e	2.ee	2cc
.	.	.	.	.	2g
.	.	.	.	4dd	.
=10	=10	=10	=10	=10	=10
1F	1A	1c	1.f	2cc	2a
.	.	.	.	1ff	2a
1D	2A	1d	.	.	1a
.	[2d	.	2a	2ff	.
=11	=11	=11	=11	=11	=11
1A	2d]	1e	1a	1ee	2r
.	4c#	.	.	.	1ee
.	4B	.	.	.	.
2r	2c#	1A	[1a	2r	.
[2D	[2d	.	.	[2dd	[2ff#
=12	=12	=12	=12	=12	=12
2D]	2d]	1d	2a]	2dd]	2ff#]
2G	2B	.	2g	2dd	1gg
1C	1c	2e	1g	2cc	.
.	.	2c	.	2ee	2g
=13	=13	=13	=13	=13	=13
1G	1B	1.d	2g	1.dd	2.b
.	.	.	1g	.	.
.	.	.	.	.	4cc
2.D	2.A	.	.	.	1dd
.	.	2d	2f#	2a	.
4D	4A	.	.	.	.
=14	=14	=14	=14	=14	=14
1G	1G	0d	2g	2b	2r
.	.	.	1g	1dd	1b
1r	1r	.	.	.	.
.	.	.	2f	2dd	2a
=15	=15	=15	=15	=15	=15
0r	0r	0r	2.e	2.gg	2b
.	.	.	.	.	2b
.	.	.	4d	4ff	.
.	.	.	2c	2ee	2cc
.	.	.	2B	2dd	2dd
=16	=16	=16	=16	=16	=16
0r	0r	0r	2c	2cc	2ee
.	.	.	1g	1b	1dd
.	.	.	2a	2cc	2cc
=17	=17	=17	=17	=17	=17
1r	1r	2r	1g	1dd	1b
.	.	2.g	.	.	.
2.D	2r	.	1d	1dd	[1a
.	.	4g	.	.	.
.	[2d	2f	.	.	.
4D	.	.	.	.	.
=18	=18	=18	=18	=18	=18
1A	4d]	0e	2r	0r	1a]
.	4c	.	.	.	.
.	2c	.	2.a	.	.
1E	1B	.	.	.	1r
.	.	.	4g	.	.
.	.	.	2g	.	.
=19	=19	=19	=19	=19	=19
1F	2A	2c	1f	0r	0r
.	4A	1a	.	.	.
.	4B	.	.	.	.
1C	4c	.	1e	.	.
.	4d	.	.	.	.
.	[2e	2g	.	.	.
=20	=20	=20	=20	=20	=20
1D	4e]	2.f	2a	0r	0r
.	4d	.	.	.	.
.	1d	.	2a	.	.
.	.	8e	.	.	.
.	.	8d	.	.	.
2.A	.	2e	2a	.	.
.	2c#	2e	2a	.	.
4G	.	.	.	.	.
=21	=21	=21	=21	=21	=21
2F	1d	0d	2a	2r	2r
2G	.	.	1g	1dd	1b
1D	1r	.	.	.	.
.	.	.	2f	2dd	2a
=22	=22	=22	=22	=22	=22
0r	0r	0r	2g	2dd	2b
.	.	.	2e	2ee	2cc
.	.	.	1d	1ff	1dd
=23	=23	=23	=23	=23	=23
0r	2r	1r	1a	2ee	4cc
.	.	.	.	.	4b
.	1d	.	.	1ff	4a
.	.	.	.	.	4g
.	.	2r	2d	.	1a
.	2c	[2a	2e	2ee	.
=24	=24	=24	=24	=24	=24
0r	2d	2a]	2f	2dd	0r
.	2B	2g	2d	2dd	.
.	1A	2a	2e	1cc	.
.	.	2f	[2a	.	.
=25	=25	=25	=25	=25	=25
0r	2.c	2e	4a]	2.ee	0r
.	.	.	4g	.	.
.	.	1e	1g	.	.
.	4B	.	.	4dd	.
.	2A	.	.	2cc	.
.	2A	2c	2f#	2cc	.
=26	=26	=26	=26	=26	=26
2r	2G	2d	2g	1b	0r
2G	2G	2B	2d	.	.
2F#	2A	2A	2d	1r	.
2G	2B	2G	2d	.	.
=27	=27	=27	=27	=27	=27
1C	1c	1g	1e	1r	1r
1C	2c	1g	2e	2r	2r
.	2c	.	2g	2cc	2ee
=28	=28	=28	=28	=28	=28
0r	2B	0r	2g	2dd	2dd
.	2c	.	2g	2ee	2cc
.	2.F	.	2.a	2.ff	2.cc
.	4F	.	4a	4ff	4dd
=29	=29	=29	=29	=29	=29
0r	2c	2r	1g	2ee	2cc
.	1c	1g	.	1cc	1ee
.	.	.	1r	.	.
.	2B	2g	.	2dd	2dd
=30	=30	=30	=30	=30	=30
1r	1c	1g	0r	1ee	1cc
2r	1G	2.g	.	2dd	2b
2G	.	.	.	2dd	2b
.	.	8f	.	.	.
.	.	8e	.	.	.
=31	=31	=31	=31	=31	=31
2G	2r	2d	1r	2g	2b
2F	2c	2f	.	2a	2a
1G	2c	2e	2r	4b	[1g
.	.	.	.	4cc	.
.	2B	2d	2g	[2dd	.
=32	=32	=32	=32	=32	=32
1C	1c	1e	2e	4dd]	1g]
.	.	.	.	4cc	.
.	.	.	2c	1cc	.
1r	1G	1d	4d	.	1g
.	.	.	4G	.	.
.	.	.	2g	2b	.
=33	=33	=33	=33	=33	=33
2r	0r	2c	2e	1cc	2r
1F	.	1f	1a	.	1cc
.	.	.	.	1r	.
2F	.	2f	2a	.	2cc
=34	=34	=34	=34	=34	=34
2G	0r	2e	1g	1r	2cc
2G	.	2d	.	.	2b
2.A	.	[1c	2e	2r	2.a
.	.	.	[2a	[2cc	.
4G	.	.	.	.	4b
=35	=35	=35	=35	=35	=35
4A	0r	1c]	2a]	2cc]	4cc
4B	.	.	.	.	4dd
1c	.	.	2g	2cc	4ee
.	.	.	.	.	4ff
.	.	1G	2r	2dd	1gg
2B	.	.	[2g	2dd	.
=36	=36	=36	=36	=36	=36
1c	2r	0r	2g]	4ee	2gg
.	.	.	.	4dd	.
.	1c	.	2g	4cc	1ee
.	.	.	.	4b	.
1r	.	.	2cc	4a	.
.	.	.	.	4g	.
.	2c	.	2cc	[2g	2ee
=37	=37	=37	=37	=37	=37
0r	2d	0r	2b	2g]	2dd
.	2d	.	2.a	2f#	2dd
.	2e	.	.	1g	2b
.	.	.	4g	.	.
.	2e	.	[2g	.	2cc
=38	=38	=38	=38	=38	=38
1r	1d	2r	2g]	1a	1dd
.	.	1d	2f#	.	.
2r	[1G	.	[1g	2b	1ee
[2G	.	2B	.	[2b	.
=39	=39	=39	=39	=39	=39
2G]	1G]	2d	1g]	2b]	0r
2E	.	2e	.	2g	.
2F	1r	1d	2r	2a	.
2G	.	.	[2g	2b	.
=40	=40	=40	=40	=40	=40
1C	2r	2.c	2g]	2.cc	2r
.	1c	.	2e	.	1ee
.	.	4d	.	4dd	.
1r	.	2e	2g	1ee	.
.	2A	2e	2a	.	2cc
=41	=41	=41	=41	=41	=41
1r	2B	2d	1g	1gg	2dd
.	1c	4c	.	.	2ee
.	.	4B	.	.	.
1F	.	2.A	1a	1ff	1cc
.	2F	.	.	.	.
.	.	4B	.	.	.
=42	=42	=42	=42	=42	=42
1F	2A	2.c	1a	0cc	2ff
.	2A	.	.	.	2ff
.	.	4d	.	.	.
1C	[1c	[1e	2g	.	1ee
.	.	.	2c	.	.
=43	=43	=43	=43	=43	=43
1C	1c]	1e]	1g	2r	2r
.	.	.	.	2cc	2ee
1G	1r	1r	[1g	1b	1dd
=44	=44	=44	=44	=44	=44
2G	0r	0r	2g]	2b	2dd
2G	.	.	2g	2b	2dd
2A	.	.	2e	2a	2cc
2A	.	.	2f#	2a	2cc
=45	=45	=45	=45	=45	=45
1G	2r	2r	1g	2dd	2b
.	2G	2g	.	2dd	2b
1r	1c	1g	1r	1ee	1cc
=46	=46	=46	=46	=46	=46
0r	2c	2g	0r	2ee	2cc
.	2c	2a	.	2ee	2cc
.	2c	2g	.	2cc	2ee
.	2c	2g	.	2cc	2ee
=47	=47	=47	=47	=47	=47
0r	1d	1f	0r	2a	1ff
.	.	.	.	2b	.
.	1c	1g	.	1cc	2ee
.	.	.	.	.	[2ee
=48	=48	=48	=48	=48	=48
1c	1r	1e	1g	2r	2ee]
.	.	.	.	1ee	1cc
1A	1c	1e	1a	.	.
.	.	.	.	[2cc	[2a
=49	=49	=49	=49	=49	=49
1F	1A	2f	1cc	2cc]	2a]
.	.	2c	.	1a	2f
1D	2A	[1d	1f	.	2.ff
.	2A	.	.	2f	.
.	.	.	.	.	4ee
=50	=50	=50	=50	=50	=50
1D	1F	1d]	1a	1ff	1dd
1AA	1A	1e	1a	1ee	1cc#
=51	=51	=51	=51	=51	=51
0r	1r	1r	1r	1r	0r
.	1A	1c#	1e	1a	.
=52	=52	=52	=52	=52	=52
0r	1G	1d	1g	1b	0r
.	1F	2f	1a	1cc	.
.	.	[2f	.	.	.
=53	=53	=53	=53	=53	=53
0r	1B-	4f]	1f	1dd	0r
.	.	4e	.	.	.
.	.	4d	.	.	.
.	.	4c	.	.	.
.	1B-	2d	1g	1dd	.
.	.	2d	.	.	.
=54	=54	=54	=54	=54	=54
2r	1A	2e	2a	1cc	2r
2A	.	2e	2a	.	2a
1G	1r	1g	1d	1r	1b
=55	=55	=55	=55	=55	=55
2F	0r	2a	2f	0r	2cc
2F	.	2a	2f	.	2cc
1B-	.	2f	1d	.	1dd
.	.	2g	.	.	.
=56	=56	=56	=56	=56	=56
1A	2r	1a	2e	2r	2cc#
.	1A	.	1a	1cc#	1ee
1r	.	2r	.	.	.
.	2A	[2A	2a	2cc#	2ee
=57	=57	=57	=57	=57	=57
1.D	0d	2A]	1a	1dd	1ff#
.	.	2A	.	.	.
.	.	[1d	1a	1dd	1ff#
2D	.	.	.	.	.
=58	=58	=58	=58	=58	=58
2G	1B	2d]	1.g	2dd	1.gg
2G	.	2d	.	2dd	.
2C	2c	[1e	.	4cc	.
.	.	.	.	4dd	.
2C	2c	.	2e	4ee	2gg
.	.	.	.	4ff	.
=59	=59	=59	=59	=59	=59
1C	1c	2e]	4c	1gg	1ee
.	.	.	4d	.	.
.	.	2e	4e	.	.
.	.	.	4f	.	.
1C	1c	2e	2g	1cc	1ee
.	.	2g	[2e	.	.
=60	=60	=60	=60	=60	=60
1E	2.G	2g	2e]	1b	1ee
.	.	2G	2g	.	.
.	4A	.	.	.	.
1G	2B	4G	2g	1b	1dd
.	.	4A	.	.	.
.	2G	4B	[2g	.	.
.	.	4c	.	.	.
=61	=61	=61	=61	=61	=61
1D	1A	1.d	2g]	1a	1dd
.	.	.	4f#	.	.
.	.	.	4e	.	.
1D	1A	.	2f#	1dd	1a
.	.	2d	2f#	.	.
=62	=62	=62	=62	=62	=62
0G	0G	0d	0g	0dd	0b
*-	*-	*-	*-	*-	*-
!!!CDT: 1525/^1526/-1594/2/2
!!!OCY: Italia
!!!AGN: Mass (Parody)
!!!AST: renaissance, vocal
!!!ASW: Motet 1572 (Palestrina)
!!!PWK: Masses, Book 11
!!!RNB: Cadence finals: C,D
!!!YOR: Le Opere Complete, v. 28, p. 268
!!!YOO: Rome, Italy: Fratelli Scalera
!!!END: 1992//
!!!EED: John Miller
!!!YEC: Copyright 2000, John Miller
!!!YEN: United States of America
!!!YEM: Rights to all derivative electronic formats reserved.
!!!YEM: Refer to licensing agreement for further details.
!!!YEM: This file must be accompanied by the licensing agreement.
!!!YEM: A copy of the licensing agreement may be found at http://www.music-cog.ohio-state.edu/HumdrumDatabases/Palestrina/license.txt
!!!EMD: converted to Humdrum by Bret Aarden
